X:1
T:Title
%%score { ( 1 3 ) | ( 2 4 ) }
L:1/8
M:4/4
K:A
V:1 treble nm="Grand Piano"
V:3 treble 
V:2 bass 
V:4 bass 
V:1
 z4 z2[Q:1/4=116] E>E | [CEA]2 [A,EA]2 B2 E2 | e4 z4 | [Fd]2 [DFB]2 [CEA]2 [B,DG]2 | %4
[M:3/4] [A,CA]6 |[M:1/4] E>E |[M:4/4] [CEA]2 [A,EA]2 B2 E2 | e4 z4 | [Fd]2 [FB]2 [EA]2 [DG]2 | %9
 [CA]6 z2 | [Ec]2 [Ec]2 [Ee]2 z2 | [Fe]2 [Fd]2 [Ec]2 z2 | B3 c d2 d2 | c2 B2 [CA]2 [CE]2 | %14
 c2 c2 c2 e2 | [Fd]2 [EFc]2 [DFB]2 z2 | [CEA]2 [EAc]2 [Ge]3 [EG] | [CEA]6 z2 |] %18
V:2
 z4 z2 E,>E, | A,,2 C,2 [E,G,E]2 [D,G,]2 | [C,A,]3 [B,,G,] [A,,A,]2 z2 | [D,A,]2 D,2 E,2 E,2 | %4
[M:3/4] A,,6 |[M:1/4] E,>E, |[M:4/4] A,,2 C,2 [E,G,E]2 [D,G,]2 | [C,A,]3 [B,,G,] [A,,A,]2 z2 | %8
 [D,A,]2 [D,D]2 [E,C]2 [E,B,]2 | [A,,A,]6 z2 | [A,,A,]2 [A,,A,]2 [A,C]2 z2 | %11
 [D,A,]2 [D,A,]2 [A,,A,]2 z2 | [E,G,E]3 [E,A,E] [E,B,E]2 [E,B,E]2 | %13
 [A,E]2 [E,G,D]2 [A,,A,]2 [A,,A,]2 | [A,E]2 [G,B,^E]2[K:bass] [F,F]2- [F,CF]2 | %15
 [B,,B,]2 C,2 D,2 z2 | E,2 E,2 [E,B,]3 [E,D] | [A,,A,]6 z2 |] %18
V:3
 x8 | x8 | E3- [Ed] [Ec]2 z2 | x8 |[M:3/4] x6 |[M:1/4] x2 |[M:4/4] x8 | E3- [Ed] [Ec]2 z2 | x8 | %9
 x8 | x8 | x8 | x8 | x8 | x8 | x8 | x8 | x8 |] %18
V:4
 x8 | x8 | x8 | x8 |[M:3/4] x6 |[M:1/4] x2 |[M:4/4] x8 | x8 | x8 | x8 | x8 | x8 | x8 | x8 | %14
 z4[K:bass] ^A,2 z2 | x8 | x8 | x8 |] %18

